src/svg/area/area-desarrollo.svg

<?xml version="1.0" encoding="UTF-8" standalone="no"?>
<!-- Generado por Andres Lacquaniti  -->

<svg
   xmlns:dc="http://purl.org/dc/elements/1.1/"
   xmlns:cc="http://creativecommons.org/ns#"
   xmlns:rdf="http://www.w3.org/1999/02/22-rdf-syntax-ns#"
   xmlns:svg="http://www.w3.org/2000/svg"
   xmlns="http://www.w3.org/2000/svg"
   xmlns:sodipodi="http://sodipodi.sourceforge.net/DTD/sodipodi-0.dtd"
   xmlns:inkscape="http://www.inkscape.org/namespaces/inkscape"
   version="1.1"
   id="Layer_1"
   x="0px"
   y="0px"
   width="15px"
   height="15px"
   viewBox="0 0 15 15"
   style="enable-background:new 0 0 15 15;"
   xml:space="preserve"
   sodipodi:docname="area-desarrollo.svg"
   inkscape:version="0.92.0 r15299"><metadata
     id="metadata9"><rdf:RDF><cc:Work
         rdf:about=""><dc:format>image/svg+xml</dc:format><dc:type
           rdf:resource="http://purl.org/dc/dcmitype/StillImage" /><dc:title></dc:title></cc:Work></rdf:RDF></metadata><sodipodi:namedview
     pagecolor="#ffffff"
     bordercolor="#666666"
     borderopacity="1"
     objecttolerance="10"
     gridtolerance="10"
     guidetolerance="10"
     inkscape:pageopacity="0"
     inkscape:pageshadow="2"
     inkscape:window-width="1920"
     inkscape:window-height="996"
     id="namedview5"
     showgrid="false"
     inkscape:zoom="31.466667"
     inkscape:cx="10.313418"
     inkscape:cy="12.087942"
     inkscape:window-x="-8"
     inkscape:window-y="-8"
     inkscape:window-maximized="1"
     inkscape:current-layer="Layer_1" /><path
     style="color:#000000;font-style:normal;font-variant:normal;font-weight:normal;font-stretch:normal;font-size:medium;line-height:normal;font-family:sans-serif;font-variant-ligatures:normal;font-variant-position:normal;font-variant-caps:normal;font-variant-numeric:normal;font-variant-alternates:normal;font-feature-settings:normal;text-indent:0;text-align:start;text-decoration:none;text-decoration-line:none;text-decoration-style:solid;text-decoration-color:#000000;letter-spacing:normal;word-spacing:normal;text-transform:none;writing-mode:lr-tb;direction:ltr;text-orientation:mixed;dominant-baseline:auto;baseline-shift:baseline;text-anchor:start;white-space:normal;shape-padding:0;clip-rule:nonzero;display:inline;overflow:visible;visibility:visible;opacity:1;isolation:auto;mix-blend-mode:normal;color-interpolation:sRGB;color-interpolation-filters:linearRGB;solid-color:#000000;solid-opacity:1;vector-effect:none;fill:#000000;fill-opacity:1;fill-rule:nonzero;stroke:none;stroke-width:0.80376995;stroke-linecap:butt;stroke-linejoin:miter;stroke-miterlimit:4;stroke-dasharray:none;stroke-dashoffset:0;stroke-opacity:1;color-rendering:auto;image-rendering:auto;shape-rendering:auto;text-rendering:auto;enable-background:accumulate"
     d="M 7.4902344 0.40625 C 7.2060015 0.40625 6.9667971 0.64740621 6.9667969 0.93164062 L 6.9667969 3.8164062 C 6.9667971 4.1006381 7.2060015 4.3398438 7.4902344 4.3398438 L 7.5761719 4.3398438 C 7.8604045 4.3398438 8.1015625 4.1006381 8.1015625 3.8164062 L 8.1015625 0.93164062 C 8.1015625 0.64740621 7.8604045 0.40625 7.5761719 0.40625 L 7.4902344 0.40625 z M 11.548828 1.8320312 C 11.413879 1.8320319 11.280178 1.8819306 11.179688 1.9824219 L 9.1386719 4.0234375 C 8.9376899 4.2244175 8.9376897 4.5626893 9.1386719 4.7636719 L 9.1992188 4.8242188 C 9.4002028 5.0252044 9.7404243 5.0253031 9.9414062 4.8242188 L 11.980469 2.7851562 C 12.181451 2.5841735 12.181458 2.243954 11.980469 2.0429688 L 11.919922 1.9824219 C 11.819431 1.8819305 11.683777 1.8320307 11.548828 1.8320312 z M 3.2421875 1.9042969 C 3.1070537 1.9042965 2.9715867 1.9541948 2.8710938 2.0546875 L 2.8105469 2.1152344 C 2.6095611 2.3162196 2.6095592 2.6544862 2.8105469 2.8554688 L 4.8515625 4.8964844 C 5.052545 5.0974672 5.3908146 5.0975717 5.5917969 4.8964844 L 5.6523438 4.8359375 C 5.8533259 4.6349547 5.8533259 4.2947328 5.6523438 4.09375 L 3.6132812 2.0546875 C 3.5127892 1.9541961 3.3773213 1.9042972 3.2421875 1.9042969 z M 7.5 4.4023438 C 6.3738132 4.4023438 5.453125 5.3249724 5.453125 6.4511719 C 5.453125 7.3880549 6.0941853 8.1751339 6.9570312 8.4160156 C 6.9484011 8.4556232 6.9335938 8.4940878 6.9335938 8.5351562 L 6.9335938 12.025391 C 6.087188 12.240807 5.3650096 12.763175 4.5664062 13.095703 C 4.3847219 13.171363 4.2070313 13.2661 4.2070312 13.462891 C 4.2070312 13.659706 4.7181542 14.561564 4.8769531 14.445312 C 6.7318023 13.087397 8.1523515 12.306963 10.259766 14.421875 C 10.398684 14.561302 10.794922 13.659709 10.794922 13.462891 C 10.794922 13.266102 10.582663 13.217072 10.427734 13.095703 C 9.5006743 12.369486 8.7358475 12.043391 8.0683594 11.953125 L 8.0683594 8.5351562 C 8.0683594 8.4940878 8.0535521 8.4556232 8.0449219 8.4160156 C 8.907768 8.1751339 9.5488281 7.3880549 9.5488281 6.4511719 C 9.5488281 5.3249724 8.6261872 4.4023437 7.5 4.4023438 z M 7.5 5.2070312 C 8.1917977 5.2070312 8.7441406 5.759367 8.7441406 6.4511719 C 8.7441406 7.1429497 8.1917977 7.6953125 7.5 7.6953125 C 6.8082025 7.6953125 6.2578125 7.1429497 6.2578125 6.4511719 C 6.2578125 5.759367 6.8082025 5.2070314 7.5 5.2070312 z M 1.7304688 5.9824219 C 1.44627 5.9824219 1.2070313 6.2216464 1.2070312 6.5058594 L 1.2070312 6.5917969 C 1.2070312 6.8760099 1.4462698 7.1152344 1.7304688 7.1152344 L 4.6152344 7.1152344 C 4.8994332 7.1152344 5.140625 6.8760099 5.140625 6.5917969 L 5.140625 6.5058594 C 5.140625 6.2216464 4.8994332 5.9824219 4.6152344 5.9824219 L 1.7304688 5.9824219 z M 10.392578 6.0058594 C 10.108312 6.0058594 9.8691406 6.2450571 9.8691406 6.5292969 L 9.8691406 6.6152344 C 9.8691406 6.8995009 10.108312 7.1386719 10.392578 7.1386719 L 13.277344 7.1386719 C 13.561611 7.1386719 13.802734 6.8995009 13.802734 6.6152344 L 13.802734 6.5292969 C 13.802734 6.2450571 13.561611 6.0058594 13.277344 6.0058594 L 10.392578 6.0058594 z M 5.4082031 7.9414062 C 5.273161 7.9413627 5.1376005 7.9911247 5.0371094 8.0917969 L 2.9980469 10.132812 C 2.7970647 10.333808 2.7970588 10.672078 2.9980469 10.873047 L 3.0585938 10.933594 C 3.259576 11.13459 3.5978457 11.134966 3.7988281 10.933594 L 5.8398438 8.8925781 C 6.0408257 8.6915821 6.0408313 8.3533129 5.8398438 8.1523438 L 5.7792969 8.0917969 C 5.6788058 7.9912989 5.5432452 7.9414498 5.4082031 7.9414062 z M 9.3515625 8.0449219 C 9.2164292 8.0449219 9.0809634 8.0948145 8.9804688 8.1953125 L 8.9199219 8.2558594 C 8.718934 8.4568554 8.7189378 8.7970506 8.9199219 8.9980469 L 10.958984 11.037109 C 11.159966 11.238105 11.50019 11.238105 11.701172 11.037109 L 11.761719 10.976562 C 11.962703 10.775568 11.962702 10.435371 11.761719 10.234375 L 9.7226562 8.1953125 C 9.6221643 8.0948145 9.4866958 8.0449219 9.3515625 8.0449219 z "
     id="path3902" /></svg>

<svg width="15px" height="15px" enable-background="new 0 0 15 15" version="1.1" viewBox="0 0 15 15" xmlns="http://www.w3.org/2000/svg">
 <path d="m7.4902 0.40625c-0.28423 0-0.52344 0.24116-0.52344 0.52539v2.8848c2e-7 0.28423 0.2392 0.52344 0.52344 0.52344h0.085938c0.28423 0 0.52539-0.23921 0.52539-0.52344v-2.8848c0-0.28423-0.24116-0.52539-0.52539-0.52539h-0.085938zm4.0586 1.4258c-0.13495 7e-7 -0.26865 0.049899-0.36914 0.15039l-2.041 2.041c-0.20098 0.20098-0.20098 0.53925 0 0.74023l0.060547 0.060547c0.20098 0.20099 0.54121 0.20108 0.74219 0l2.0391-2.0391c0.20098-0.20098 0.20099-0.5412 0-0.74219l-0.060547-0.060547c-0.10049-0.10049-0.23614-0.15039-0.37109-0.15039zm-8.3066 0.072266c-0.13513-4e-7 -0.2706 0.049898-0.37109 0.15039l-0.060547 0.060547c-0.20099 0.20099-0.20099 0.53925 0 0.74023l2.041 2.041c0.20098 0.20098 0.53925 0.20109 0.74023 0l0.060547-0.060547c0.20098-0.20098 0.20098-0.5412 0-0.74219l-2.0391-2.0391c-0.10049-0.10049-0.23596-0.15039-0.37109-0.15039zm4.2578 2.498c-1.1262 0-2.0469 0.92263-2.0469 2.0488 0 0.93688 0.64106 1.724 1.5039 1.9648-0.0086301 0.039608-0.023437 0.078072-0.023437 0.11914v3.4902c-0.84641 0.21542-1.5686 0.73778-2.3672 1.0703-0.18168 0.07566-0.35937 0.1704-0.35938 0.36719 0 0.19682 0.51112 1.0987 0.66992 0.98242 1.8548-1.3579 3.2754-2.1383 5.3828-0.023437 0.13892 0.13943 0.53516-0.76217 0.53516-0.95898 0-0.19679-0.21226-0.24582-0.36719-0.36719-0.92706-0.72622-1.6919-1.0523-2.3594-1.1426v-3.418c0-0.041068-0.014807-0.079533-0.023438-0.11914 0.86285-0.24088 1.5039-1.028 1.5039-1.9648 0-1.1262-0.92264-2.0488-2.0488-2.0488zm0 0.80469c0.6918 0 1.2441 0.55234 1.2441 1.2441 0 0.69178-0.55234 1.2441-1.2441 1.2441-0.6918 0-1.2422-0.55236-1.2422-1.2441 0-0.6918 0.55039-1.2441 1.2422-1.2441zm-5.7695 0.77539c-0.2842 0-0.52344 0.23922-0.52344 0.52344v0.085938c0 0.28421 0.23924 0.52344 0.52344 0.52344h2.8848c0.2842 0 0.52539-0.23922 0.52539-0.52344v-0.085938c0-0.28421-0.24119-0.52344-0.52539-0.52344h-2.8848zm8.6621 0.023438c-0.28427 0-0.52344 0.2392-0.52344 0.52344v0.085938c0 0.28427 0.23917 0.52344 0.52344 0.52344h2.8848c0.28427 0 0.52539-0.23917 0.52539-0.52344v-0.085938c0-0.28424-0.24112-0.52344-0.52539-0.52344h-2.8848zm-4.9844 1.9355c-0.13504-4.35e-5 -0.2706 0.049718-0.37109 0.15039l-2.0391 2.041c-0.20098 0.201-0.20099 0.53927 0 0.74024l0.060547 0.060547c0.20098 0.201 0.53925 0.20137 0.74023 0l2.041-2.041c0.20098-0.201 0.20099-0.53927 0-0.74023l-0.060547-0.060547c-0.10049-0.1005-0.23605-0.15035-0.37109-0.15039zm3.9434 0.10352c-0.13513 0-0.2706 0.049893-0.37109 0.15039l-0.060547 0.060547c-0.20099 0.201-0.20098 0.54119 0 0.74219l2.0391 2.0391c0.20098 0.201 0.54121 0.201 0.74219 0l0.060547-0.060547c0.20098-0.20099 0.20098-0.54119 0-0.74219l-2.0391-2.0391c-0.10049-0.1005-0.23596-0.15039-0.37109-0.15039z" color="#000000" color-rendering="auto" dominant-baseline="auto" enable-background="accumulate" image-rendering="auto" shape-rendering="auto" solid-color="#000000" style="font-feature-settings:normal;font-variant-alternates:normal;font-variant-caps:normal;font-variant-ligatures:normal;font-variant-numeric:normal;font-variant-position:normal;isolation:auto;mix-blend-mode:normal;shape-padding:0;text-decoration-color:#000000;text-decoration-line:none;text-decoration-style:solid;text-indent:0;text-orientation:mixed;text-transform:none;white-space:normal"/>
</svg>
